hyprcursor_themes/black/hyprcursors/move/move.svg

<?xml version="1.0" encoding="UTF-8" standalone="no"?>
<!-- Created with Inkscape (http://www.inkscape.org/) -->

<svg
   version="1.1"
   id="svg1"
   width="75"
   height="75"
   viewBox="0 0 75 75"
   xmlns="http://www.w3.org/2000/svg"
   xmlns:svg="http://www.w3.org/2000/svg">
  <defs
     id="defs1">
    <clipPath
       clipPathUnits="userSpaceOnUse"
       id="clipPath47-1">
      <path
         d="M 0,324 H 524 V 0 H 0 Z"
         transform="translate(-390.50001,-94)"
         id="path47-8" />
    </clipPath>
  </defs>
  <g
     id="layer3"
     transform="matrix(1.1968085,0,0,1.1968085,20.345748,-2.3936171)">
    <path
       id="path46"
       d="M 0,0 C -12.406,0 -22.5,10.094 -22.5,22.5 -22.5,34.906 -12.406,45 0,45 12.406,45 22.5,34.906 22.5,22.5 22.5,10.094 12.406,0 0,0"
       style="display:inline;fill:#000000;fill-opacity:1;fill-rule:nonzero;stroke:#ffffff;stroke-opacity:1;stroke-width:4.18606173;stroke-dasharray:none;paint-order:stroke markers fill"
       transform="matrix(1.2740737,0,0,-1.2740737,14.33333,61.999999)"
       clip-path="url(#clipPath47-1)" />
    <path
       style="display:inline;opacity:1;fill:none;stroke:#ffffff;stroke-width:4.00231;stroke-linecap:round;stroke-miterlimit:4;stroke-dasharray:none;stroke-opacity:1;paint-order:stroke markers fill"
       d="m 7.668104,48.000676 6.665226,6.663556 6.665227,-6.663556"
       id="path1" />
    <path
       style="display:inline;opacity:1;fill:none;stroke:#ffffff;stroke-width:4.00231;stroke-linecap:round;stroke-miterlimit:4;stroke-dasharray:none;stroke-opacity:1;paint-order:stroke markers fill"
       d="m 7.668097,18.66539 6.665226,-6.663556 6.665227,6.663556"
       id="path6" />
    <path
       style="display:inline;opacity:1;fill:none;stroke:#ffffff;stroke-width:4.00231;stroke-linecap:round;stroke-miterlimit:4;stroke-dasharray:none;stroke-opacity:1;paint-order:stroke markers fill"
       d="m 29.000672,26.668274 6.663556,6.665226 -6.663556,6.665227"
       id="path8" />
    <path
       style="display:inline;opacity:1;fill:none;stroke:#ffffff;stroke-width:4.00231;stroke-linecap:round;stroke-miterlimit:4;stroke-dasharray:none;stroke-opacity:1;paint-order:stroke markers fill"
       d="M -0.33474464,39.998845 -6.9983006,33.333619 -0.33474464,26.668392"
       id="path10" />
  </g>
</svg>

<svg width="75" height="75" version="1.1" viewBox="0 0 75 75" xmlns="http://www.w3.org/2000/svg"><defs><clipPath id="a"><path transform="translate(-390.5 -94)" d="m0 324h524v-324h-524z"/></clipPath></defs><g transform="matrix(1.197 0 0 1.197 20.35 -2.394)" stroke="#fff"><path transform="matrix(1.274 0 0 -1.274 14.33 62)" d="m0 0c-12.41 0-22.5 10.09-22.5 22.5s10.09 22.5 22.5 22.5 22.5-10.09 22.5-22.5-10.09-22.5-22.5-22.5" clip-path="url(#a)" stroke-width="4.186" style="paint-order:stroke markers fill"/><path d="m7.668 48 6.665 6.664 6.665-6.664" fill="none" stroke-linecap="round" stroke-width="4.002" style="paint-order:stroke markers fill"/><path d="m7.668 18.67 6.665-6.664 6.665 6.664" fill="none" stroke-linecap="round" stroke-width="4.002" style="paint-order:stroke markers fill"/><path d="m29 26.67 6.664 6.665-6.664 6.665" fill="none" stroke-linecap="round" stroke-width="4.002" style="paint-order:stroke markers fill"/><path d="m-0.3347 40-6.664-6.665 6.664-6.665" fill="none" stroke-linecap="round" stroke-width="4.002" style="paint-order:stroke markers fill"/></g></svg>
